!!!COM: Music21
!!!OTL: Marcha Procesional de San Bieito
!!!OMV: pezas_marchas_marcha-procesional-de-san-bieito_marcha-procesional-de-san-bieito-partitura.musicxml
**kern
*part1
*staff1
*I"Bagpipes
*I'Bag
*clefG^2
*k[]
*M2/4
=1
!LO:TX:a:t=Lento
*MM48
!LO:TX:a:t=[quarter]=48
4.cc
16eeLL
16ddJJ
=
8.ccL
16ddJk
8.ccL
16eeJk
=
2gg
=
4.aa
16bbLL
16cccJJ
=
4gg
4ee
=
4ee
8ccL
16ddL
16eeJJ
=
2dd
=
8.ggL
16ffJk
8.eeL
16ddJk
=
4.cc
16eeLL
16ddJJ
=
8.ccL
16ddJk
8.ccL
16eeJk
!!linebreak:original
=
2gg
=
4.aa
16bbLL
16cccJJ
!!linebreak:original
=
4gg
8.ccL
16aaJk
=
4gg
4ff
=
4ee
4ee
=
4ee
4r
=||
*M2/4
!LO:TX:a:t=Lento
*MM48
!LO:TX:a:t=[quarter]=48
4.cc
16eeLL
16ddJJ
=
8.ccL
16ddJk
8.ccL
16eeJk
=
2gg
=
4.aa
16bbLL
16cccJJ
=
4gg
4ee
=
4ee
8ccL
16ddL
16eeJJ
=
2dd
!!linebreak:original
=
8.ggL
16ffJk
8.eeL
16ddJk
=
4.cc
16eeLL
16ddJJ
=
8.ccL
16ddJk
8.ccL
16eeJk
=
2gg
=
4.aa
16bbLL
16cccJJ
!!linebreak:original
=
4gg
8.ccL
16aaJk
=
4gg
4ff
=
4ee
4ee
=
4ee
4r
=||
2gg
=
4ee
8ffL
16eeL
16ffJJ
=
2gg
=
8.eeL
16ggJk
8.cccL
16ggJk
=
2ff
=
4dd
8ddL
16eeL
16ffJJ
=
2gg
=
8.eeL
16ggJk
8.ccL
16eeJk
=
2gg
!!linebreak:original
=
4ee
8eeL
16ffL
16ggJJ
!!pagebreak:original
=
2aa
=
4ff
8ffL
16ggL
16aaJJ
=
4gg
8eeL
16ffL
16ggJJ
=
4ff
8ddL
16eeL
16ffJJ
=
4ee
4ee
=
4ee
4r
=||
2gg
=
4ee
8ffL
16eeL
16ffJJ
=
2gg
=
8.eeL
16ggJk
8.cccL
16ggJk
=
2ff
=
4dd
8ddL
16eeL
16ffJJ
!!linebreak:original
=
2gg
=
8.eeL
16ggJk
8.ccL
16eeJk
=
2gg
=
4ee
8eeL
16ffL
16ggJJ
!!linebreak:original
=
2aa
=
4ff
8ffL
16ggL
16aaJJ
=
4gg
8eeL
16ffL
16ggJJ
=
4ff
8ddL
16eeL
16ffJJ
=
4ee
4ee
=
4ee
4r
=||
*-
!!!system-decoration: s1,s2
